sources/design/Outline/ല.svg

<svg:svg xmlns:cc="http://creativecommons.org/ns#" xmlns:dc="http://purl.org/dc/elements/1.1/" xmlns:inkscape="http://www.inkscape.org/namespaces/inkscape" xmlns:rdf="http://www.w3.org/1999/02/22-rdf-syntax-ns#" xmlns:sodipodi="http://sodipodi.sourceforge.net/DTD/sodipodi-0.dtd" xmlns:svg="http://www.w3.org/2000/svg" xml:space="preserve" width="1000" height="1000" version="1.1" style="clip-rule:evenodd;fill-rule:evenodd;image-rendering:optimizeQuality;shape-rendering:geometricPrecision;text-rendering:geometricPrecision" viewBox="0 0 1000 1000" id="svg10" sodipodi:docname="ല.svg" inkscape:version="1.1.1 (3bf5ae0d25, 2021-09-20)"><svg:text text-anchor="middle" x="627.35297" y="804.43164" id="right" inkscape:label="right" style="clip-rule:evenodd;fill-rule:evenodd;image-rendering:optimizeQuality;shape-rendering:geometricPrecision;text-rendering:geometricPrecision">✛</svg:text><svg:text text-anchor="middle" x="511.39154" y="752.492" id="bottom" inkscape:label="bottom" style="clip-rule:evenodd;fill-rule:evenodd;image-rendering:optimizeQuality;shape-rendering:geometricPrecision;text-rendering:geometricPrecision">✛</svg:text><svg:metadata id="metadata14"><rdf:RDF><cc:Work rdf:about=""><dc:format>image/svg+xml</dc:format><dc:type rdf:resource="http://purl.org/dc/dcmitype/StillImage" /></cc:Work></rdf:RDF></svg:metadata><sodipodi:namedview pagecolor="#ffffff" bordercolor="#666666" borderopacity="1" objecttolerance="10" gridtolerance="10" guidetolerance="10" inkscape:pageopacity="0" inkscape:pageshadow="2" inkscape:window-width="1920" inkscape:window-height="1009" id="namedview12" showgrid="false" inkscape:zoom="0.84890885" inkscape:cx="392.85725" inkscape:cy="466.48118" inkscape:window-x="0" inkscape:window-y="0" inkscape:window-maximized="1" inkscape:current-layer="svg10" showguides="true" inkscape:guide-bbox="true" inkscape:document-rotation="0" inkscape:pagecheckerboard="0"><sodipodi:guide position="0,1000" orientation="0,1" id="guide16" inkscape:label="" inkscape:locked="true" inkscape:color="rgb(0,0,255)" /><sodipodi:guide position="1763.3122,2036.1693" orientation="1000,0" id="guide18" /><sodipodi:guide position="0,200" orientation="0,1" id="guide20" inkscape:label="base" inkscape:locked="true" inkscape:color="rgb(0,0,255)" /><inkscape:grid type="xygrid" id="grid24" originx="-473.37552" originy="-489.69235" /><sodipodi:guide position="0,0" orientation="0,1" id="guide34" inkscape:label="bottom" inkscape:locked="true" inkscape:color="rgb(0,0,255)" /><sodipodi:guide position="225.05109,1693.3186" orientation="0,1" id="guide44" inkscape:label="" inkscape:locked="false" inkscape:color="rgb(0,0,255)" /><sodipodi:guide position="0,900" orientation="0,1" id="guide46" inkscape:label="" inkscape:locked="true" inkscape:color="rgb(0,0,255)" /><sodipodi:guide position="636.60586,965.39976" orientation="-1,0" id="guide841" inkscape:label="width" inkscape:locked="false" inkscape:color="rgb(0,0,255)" /></sodipodi:namedview>
 <svg:defs id="defs4"><inkscape:path-effect effect="fillet_chamfer" id="path-effect845" is_visible="true" lpeversion="1" satellites_param="F,0,0,1,0,0,0,1 @ F,0,0,1,0,0,0,1 @ F,0,0,1,0,0,0,1 @ F,0,0,1,0,0,0,1 @ F,0,0,1,0,0,0,1 @ F,0,0,1,0,16.565834,0,1 @ F,0,0,1,0,26.33522,0,1 @ F,0,0,1,0,0,0,1 @ F,0,0,1,0,0,0,1 @ F,0,0,1,0,0,0,1 @ F,0,0,1,0,0,0,1 @ F,0,0,1,0,0,0,1 @ F,0,0,1,0,0,0,1 @ F,0,0,1,0,0,0,1 @ F,0,0,1,0,0,0,1 @ F,0,0,1,0,0,0,1 @ F,0,0,1,0,0,0,1 @ F,0,0,1,0,0,0,1 @ F,0,0,1,0,0,0,1 @ F,0,0,1,0,0,0,1 @ F,0,0,1,0,0,0,1 @ F,0,0,1,0,0,0,1 @ F,0,0,1,0,28.101594,0,1 @ F,0,0,1,0,29.073939,0,1 @ F,0,0,1,0,0,0,1 @ F,0,0,1,0,0,0,1 @ F,0,0,1,0,0,0,1 @ F,0,0,1,0,0,0,1 @ F,0,0,1,0,0,0,1 @ F,0,0,1,0,0,0,1 @ F,0,0,1,0,0,0,1 @ F,0,0,1,0,0,0,1 @ F,0,0,1,0,0,0,1 @ F,0,0,1,0,0,0,1" unit="px" method="auto" mode="F" radius="0" chamfer_steps="1" flexible="false" use_knot_distance="true" apply_no_radius="true" apply_with_radius="true" only_selected="true" hide_knots="false" /><inkscape:path-effect effect="spiro" id="path-effect854" is_visible="true" lpeversion="1" />
  <svg:style type="text/css" id="style2">
   
    .fil0 {fill:#EF7F1A;fill-rule:nonzero}
   
  </svg:style>
 <inkscape:path-effect effect="spiro" id="path-effect1214" is_visible="true" lpeversion="1" /><inkscape:path-effect effect="spiro" id="path-effect1195" is_visible="true" lpeversion="1" /><inkscape:path-effect effect="spiro" id="path-effect992" is_visible="true" lpeversion="1" /><inkscape:path-effect effect="spiro" id="path-effect287" is_visible="true" lpeversion="1" /><inkscape:path-effect effect="spiro" id="path-effect1032" is_visible="true" lpeversion="1" /></svg:defs>
 
<svg:g id="path1188-4-2"><svg:path style="color:#000000;clip-rule:nonzero;fill:#1a5fb4;fill-rule:nonzero;stroke-linecap:round;stroke-linejoin:round;-inkscape-stroke:none;paint-order:fill stroke markers;shape-rendering:auto" d="M 249.82617,68.193359 C 224.98826,67.41145900000001 200.08758999999998,71.445544 176.79492,79.644531 C 130.53731,95.927148 92.028312,127.49509 63.923828,165.44727 C 34.52887,205.14209 16.494724,251.25175 6.9140625,297.94141 C -2.6491958,344.54625 -3.9435327,391.60162 -1.4492187,437.3457 C 3.1783346,522.21199 21.954429,610.95502 73.148437,684.52344 C 106.53481,732.5013700000001 152.34273000000002,771.3742400000001 205.1543,796.4648400000001 C 257.96761000000004,821.55627 317.06863,832.5186500000001 375.38086,827.98242 C 420.19971999999996,824.4958700000001 464.92452,811.80938 504.52148,788.25 C 544.222,764.62901 578.05108,730.26032 599.01562,687.86328 C 631.5132100000001,622.14272 628.85134,548.91655 619.87109,483.57227 C 610.93833,418.57348 596.50973,357.67538 599.11523,299.85156 C 601.1989599999999,253.60761000000002 614.16749,207.64074 636.44727,166.98437 C 643.30998,154.46121000000002 645.95857,137.95446 639.49023,123.05859000000001 C 633.0219,108.16273000000001 618.16229,98.32700200000001 603.67383,95.46679700000001 L 493.79687,73.777344 C 468.91153,68.864663 443.45568000000003,85.269311 438.95117,111.0918 C 434.36249,137.39684 432.5327,164.16471 433.51562,190.85937 C 436.08049,260.51674 456.77223000000004,324.35404000000005 470.44531,385.31445 C 484.05887,446.00949 490.66707,507.16418 473.13672,559.5644500000001 C 463.85290000000003,587.31487 447.60426,612.8609200000001 426.36328000000003,632.3437500000001 C 405.1587,651.7932000000001 378.45752000000005,665.5414400000001 350.63477,670.9179700000001 C 318.42858,677.14156 283.38530000000003,672.32608 252.72460999999998,658.3691400000001 C 231.50964,648.7119500000001 212.07931,634.5722100000002 195.41016,617.5058600000001 C 247.08560999999997,600.5188100000001 294.68629,571.71112 333.48828000000003,533.4355500000001 C 394.62811000000005,473.12518000000017 432.50415000000004,390.2586400000001 436.01562,303.99805000000015 C 437.70331,262.53948 431.53604,219.4834 413.12891,180.0625 C 394.60565,140.3929 363.69057,105.44927 322.48047,85.646484 C 299.43853,74.574086 274.66409,68.975259 249.82617,68.193359 M 247.73828,128.32617 C 264.89029,128.85389999999998 281.6651,132.60073 296.49414,139.72655999999998 C 323.13353,152.52765999999997 345.43833,176.90957999999998 358.76367000000005,205.44726999999997 C 372.20514000000003,234.23364999999998 377.43857,267.80089999999996 376.06445,301.55663999999996 C 373.20988,371.68024999999994 341.63886,441.11757 291.35352,490.72069999999997 C 259.18604,522.45177 219.25814,546.60587 176.23047,560.6757799999999 L 160.08789,510.9121099999999 C 186.92784999999998,509.83539999999994 213.52712,503.8438299999999 238.25585999999998,492.9706999999999 C 277.64286999999996,475.6523799999999 311.24603,446.60259999999994 334.07617,410.1328099999999 C 353.63009999999997,378.8965699999999 366.12547,340.3956399999999 360.13867,300.2890599999999 C 357.13608,280.1742299999999 349.47326,260.4334499999999 336.55469,243.4999999999999 C 323.56435,226.47246999999987 305.7253,212.98599999999988 284.46875,206.04296999999988 C 257.04082,197.0841699999999 228.68653,200.40055999999987 204.35742,210.41991999999988 C 180.35200999999998,220.30597999999986 160.9311,236.1618999999999 145.08398,253.23436999999987 C 111.086,289.86120999999986 90.180554,335.67634999999984 79.710937,382.4589799999999 C 61.08232700000001,465.6994299999999 75.319379,556.8788499999998 125.79297,627.6621099999999 C 151.64165,663.9118399999999 186.52444,694.1579599999999 227.86523,712.9765599999998 C 269.31354,731.8440999999998 316.43635,738.6367199999999 362.01953000000003,729.8281199999998 C 401.36310000000003,722.2252899999997 437.71071000000006,703.3520699999998 466.91992000000005,676.5605499999998 C 496.09274000000005,649.8023999999998 517.61728,615.7239199999998 530.0371100000001,578.5996099999998 C 553.28042,509.12264999999974 543.5054000000001,436.88965999999976 528.99219,372.18358999999975 C 514.5385,307.74290999999977 495.63868,247.42468999999977 493.47461000000004,188.65233999999975 C 492.81989000000004,170.87135999999975 493.70756000000006,153.02676999999974 495.99609000000004,135.36913999999976 L 577.06641,151.37304999999975 C 554.58483,196.68590999999975 541.45754,246.51146999999975 539.17578,297.1503899999998 C 536.05974,366.3045899999998 552.05686,430.8177099999998 560.42969,491.7421899999998 C 568.75504,552.3211699999998 569.0732,613.0499099999998 545.2304700000001,661.2675799999998 C 529.9849600000001,692.0988999999998 504.34845000000007,718.5378299999999 473.8437500000001,736.6874999999999 C 443.2355000000001,754.8987799999999 407.3554600000001,765.3147799999999 370.7285200000001,768.1640599999998 C 323.0546400000001,771.8727099999999 274.10954000000015,762.7971299999998 230.90234000000012,742.2695299999998 C 187.69341,721.74111 149.7326,689.53254 122.39844,650.25195 C 80.313024,589.77305 62.726957,512.27831 58.462891,434.07812 C 56.153663,391.72841 57.518627,349.82102 65.689453,310.00195 C 73.842876,270.2677 89.033732,232.36039 112.14258,201.1543 C 134.04739,171.57413 163.70868,147.861 196.71679999999998,136.24219 C 213.05698999999998,130.49045999999998 230.58626999999998,127.79844 247.73827999999997,128.32617 L 247.73828,128.32617 M 247.29102,261.10937 C 253.92735,260.62742000000003 260.30622,261.27131 265.83789,263.07812 C 274.39103,265.87184 282.82092,271.98771 288.85156,279.89258 C 294.95397,287.89152 299.16769,298.2454 300.79492,309.14648 C 304.06775999999996,331.07173 296.94416,356.37135 283.21875,378.29687 C 266.90819,404.35202000000004 242.24475999999999,425.67413 214.10547,438.04687 C 193.36166,447.16785 170.31381,451.64623 147.51953,451.08984000000004 C 142.51588,450.96771 137.26195,451.46408 132.07031,452.67773000000005 C 132.07231000000002,433.47273000000007 134.08244000000002,414.24601000000007 138.26367000000002,395.56250000000006 C 146.82035000000002,357.32767000000007 163.78723000000002,321.2781800000001 189.05859,294.05273000000005 C 200.75915,281.44744000000003 213.76876000000001,271.4338200000001 227.20508,265.9003900000001 C 233.76139,263.20033000000006 240.65469000000002,261.5913300000001 247.29102,261.10937000000007 L 247.29102,261.10937" id="path3188" /></svg:g></svg:svg>

<svg:svg xmlns:cc="http://creativecommons.org/ns#" xmlns:dc="http://purl.org/dc/elements/1.1/" xmlns:inkscape="http://www.inkscape.org/namespaces/inkscape" xmlns:rdf="http://www.w3.org/1999/02/22-rdf-syntax-ns#" xmlns:sodipodi="http://sodipodi.sourceforge.net/DTD/sodipodi-0.dtd" xmlns:svg="http://www.w3.org/2000/svg" xml:space="preserve" width="1000" height="1000" version="1.1" style="clip-rule:evenodd;fill-rule:evenodd;image-rendering:optimizeQuality;shape-rendering:geometricPrecision;text-rendering:geometricPrecision" viewBox="0 0 1000 1000" id="svg10" sodipodi:docname="ല.svg" inkscape:version="1.1.1 (3bf5ae0d25, 2021-09-20)"><svg:text text-anchor="middle" x="627.35297" y="804.43164" id="right" inkscape:label="right" style="clip-rule:evenodd;fill-rule:evenodd;image-rendering:optimizeQuality;shape-rendering:geometricPrecision;text-rendering:geometricPrecision">✛</svg:text><svg:text text-anchor="middle" x="511.39154" y="752.492" id="bottom" inkscape:label="bottom" style="clip-rule:evenodd;fill-rule:evenodd;image-rendering:optimizeQuality;shape-rendering:geometricPrecision;text-rendering:geometricPrecision">✛</svg:text><svg:metadata id="metadata14"><rdf:RDF><cc:Work rdf:about=""><dc:format>image/svg+xml</dc:format><dc:type rdf:resource="http://purl.org/dc/dcmitype/StillImage" /></cc:Work></rdf:RDF></svg:metadata><sodipodi:namedview pagecolor="#ffffff" bordercolor="#666666" borderopacity="1" objecttolerance="10" gridtolerance="10" guidetolerance="10" inkscape:pageopacity="0" inkscape:pageshadow="2" inkscape:window-width="1920" inkscape:window-height="1009" id="namedview12" showgrid="false" inkscape:zoom="0.84890885" inkscape:cx="392.85725" inkscape:cy="466.48118" inkscape:window-x="0" inkscape:window-y="0" inkscape:window-maximized="1" inkscape:current-layer="svg10" showguides="true" inkscape:guide-bbox="true" inkscape:document-rotation="0" inkscape:pagecheckerboard="0"><sodipodi:guide position="0,1000" orientation="0,1" id="guide16" inkscape:label="" inkscape:locked="true" inkscape:color="rgb(0,0,255)" /><sodipodi:guide position="1763.3122,2036.1693" orientation="1000,0" id="guide18" /><sodipodi:guide position="0,200" orientation="0,1" id="guide20" inkscape:label="base" inkscape:locked="true" inkscape:color="rgb(0,0,255)" /><inkscape:grid type="xygrid" id="grid24" originx="-473.37552" originy="-489.69235" /><sodipodi:guide position="0,0" orientation="0,1" id="guide34" inkscape:label="bottom" inkscape:locked="true" inkscape:color="rgb(0,0,255)" /><sodipodi:guide position="225.05109,1693.3186" orientation="0,1" id="guide44" inkscape:label="" inkscape:locked="false" inkscape:color="rgb(0,0,255)" /><sodipodi:guide position="0,900" orientation="0,1" id="guide46" inkscape:label="" inkscape:locked="true" inkscape:color="rgb(0,0,255)" /><sodipodi:guide position="636.60586,965.39976" orientation="-1,0" id="guide841" inkscape:label="width" inkscape:locked="false" inkscape:color="rgb(0,0,255)" /></sodipodi:namedview>
 <svg:defs id="defs4"><inkscape:path-effect effect="fillet_chamfer" id="path-effect845" is_visible="true" lpeversion="1" satellites_param="F,0,0,1,0,0,0,1 @ F,0,0,1,0,0,0,1 @ F,0,0,1,0,0,0,1 @ F,0,0,1,0,0,0,1 @ F,0,0,1,0,0,0,1 @ F,0,0,1,0,16.565834,0,1 @ F,0,0,1,0,26.33522,0,1 @ F,0,0,1,0,0,0,1 @ F,0,0,1,0,0,0,1 @ F,0,0,1,0,0,0,1 @ F,0,0,1,0,0,0,1 @ F,0,0,1,0,0,0,1 @ F,0,0,1,0,0,0,1 @ F,0,0,1,0,0,0,1 @ F,0,0,1,0,0,0,1 @ F,0,0,1,0,0,0,1 @ F,0,0,1,0,0,0,1 @ F,0,0,1,0,0,0,1 @ F,0,0,1,0,0,0,1 @ F,0,0,1,0,0,0,1 @ F,0,0,1,0,0,0,1 @ F,0,0,1,0,0,0,1 @ F,0,0,1,0,28.101594,0,1 @ F,0,0,1,0,29.073939,0,1 @ F,0,0,1,0,0,0,1 @ F,0,0,1,0,0,0,1 @ F,0,0,1,0,0,0,1 @ F,0,0,1,0,0,0,1 @ F,0,0,1,0,0,0,1 @ F,0,0,1,0,0,0,1 @ F,0,0,1,0,0,0,1 @ F,0,0,1,0,0,0,1 @ F,0,0,1,0,0,0,1 @ F,0,0,1,0,0,0,1" unit="px" method="auto" mode="F" radius="0" chamfer_steps="1" flexible="false" use_knot_distance="true" apply_no_radius="true" apply_with_radius="true" only_selected="true" hide_knots="false" /><inkscape:path-effect effect="spiro" id="path-effect854" is_visible="true" lpeversion="1" />
  <svg:style type="text/css" id="style2">
   
    .fil0 {fill:#EF7F1A;fill-rule:nonzero}
   
  </svg:style>
 <inkscape:path-effect effect="spiro" id="path-effect1214" is_visible="true" lpeversion="1" /><inkscape:path-effect effect="spiro" id="path-effect1195" is_visible="true" lpeversion="1" /><inkscape:path-effect effect="spiro" id="path-effect992" is_visible="true" lpeversion="1" /><inkscape:path-effect effect="spiro" id="path-effect287" is_visible="true" lpeversion="1" /><inkscape:path-effect effect="spiro" id="path-effect1032" is_visible="true" lpeversion="1" /></svg:defs>
 
<svg:g id="path1188-4-2"><svg:path style="color:#000000;clip-rule:nonzero;fill:#1a5fb4;fill-rule:nonzero;stroke-linecap:round;stroke-linejoin:round;-inkscape-stroke:none;shape-rendering:auto" d="m 249.82617,68.193359 c -24.83791,-0.7819 -49.73858,3.252185 -73.03125,11.451172 C 130.53731,95.927148 92.028312,127.49509 63.923828,165.44727 34.52887,205.14209 16.494724,251.25175 6.9140625,297.94141 -2.6491958,344.54625 -3.9435327,391.60162 -1.4492187,437.3457 3.1783346,522.21199 21.954429,610.95502 73.148437,684.52344 c 33.386373,47.97793 79.194293,86.8508 132.005863,111.9414 52.81331,25.09143 111.91433,36.05381 170.22656,31.51758 44.81886,-3.48655 89.54366,-16.17304 129.14062,-39.73242 39.70052,-23.62099 73.5296,-57.98968 94.49414,-100.38672 32.49759,-65.72056 29.83572,-138.94673 20.85547,-204.29101 -8.93276,-64.99879 -23.36136,-125.89689 -20.75586,-183.72071 2.08373,-46.24395 15.05226,-92.21082 37.33204,-132.86719 6.86271,-12.52316 9.5113,-29.02991 3.04296,-43.92578 -6.46833,-14.89586 -21.32794,-24.731588 -35.8164,-27.591793 L 493.79687,73.777344 c -24.88534,-4.912681 -50.34119,11.491967 -54.8457,37.314456 -4.58868,26.30504 -6.41847,53.07291 -5.43555,79.76757 2.56487,69.65737 23.25661,133.49467 36.92969,194.45508 13.61356,60.69504 20.22176,121.84973 2.69141,174.25 -9.28382,27.75042 -25.53246,53.29647 -46.77344,72.7793 -21.20458,19.44945 -47.90576,33.19769 -75.72851,38.57422 -32.20619,6.22359 -67.24947,1.40811 -97.91016,-12.54883 -21.21497,-9.65719 -40.6453,-23.79693 -57.31445,-40.86328 51.67545,-16.98705 99.27613,-45.79474 138.07812,-84.07031 61.13983,-60.31037 99.01587,-143.17691 102.52734,-229.4375 C 437.70331,262.53948 431.53604,219.4834 413.12891,180.0625 394.60565,140.3929 363.69057,105.44927 322.48047,85.646484 299.43853,74.574086 274.66409,68.975259 249.82617,68.193359 Z m -2.08789,60.132811 c 17.15201,0.52773 33.92682,4.27456 48.75586,11.40039 26.63939,12.8011 48.94419,37.18302 62.26953,65.72071 13.44147,28.78638 18.6749,62.35363 17.30078,96.10937 -2.85457,70.12361 -34.42559,139.56093 -84.71093,189.16406 -32.16748,31.73107 -72.09538,55.88517 -115.12305,69.95508 l -16.14258,-49.76367 c 26.83996,-1.07671 53.43923,-7.06828 78.16797,-17.94141 39.38701,-17.31832 72.99017,-46.3681 95.82031,-82.83789 19.55393,-31.23624 32.0493,-69.73717 26.0625,-109.84375 -3.00259,-20.11483 -10.66541,-39.85561 -23.58398,-56.78906 -12.99034,-17.02753 -30.82939,-30.514 -52.08594,-37.45703 -27.42793,-8.9588 -55.78222,-5.64241 -80.11133,4.37695 -24.00541,9.88606 -43.42632,25.74198 -59.27344,42.81445 -33.99798,36.62684 -54.903426,82.44198 -65.373043,129.22461 -18.62861,83.24045 -4.391558,174.41987 46.082033,245.20313 25.84868,36.24973 60.73147,66.49585 102.07226,85.31445 41.44831,18.86754 88.57112,25.66016 134.1543,16.85156 39.34357,-7.60283 75.69118,-26.47605 104.90039,-53.26757 29.17282,-26.75815 50.69736,-60.83663 63.11719,-97.96094 23.24331,-69.47696 13.46829,-141.70995 -1.04492,-206.41602 -14.45369,-64.44068 -33.35351,-124.7589 -35.51758,-183.53125 -0.65472,-17.78098 0.23295,-35.62557 2.52148,-53.2832 l 81.07032,16.00391 c -22.48158,45.31286 -35.60887,95.13842 -37.89063,145.77734 -3.11604,69.1542 12.88108,133.66732 21.25391,194.5918 8.32535,60.57898 8.64351,121.30772 -15.19922,169.52539 -15.24551,30.83132 -40.88202,57.27025 -71.38672,75.41992 -30.60825,18.21128 -66.48829,28.62728 -103.11523,31.47656 -47.67388,3.70865 -96.61898,-5.36693 -139.82618,-25.89453 C 187.69341,721.74111 149.7326,689.53254 122.39844,650.25195 80.313024,589.77305 62.726957,512.27831 58.462891,434.07812 56.153663,391.72841 57.518627,349.82102 65.689453,310.00195 73.842876,270.2677 89.033732,232.36039 112.14258,201.1543 c 21.90481,-29.58017 51.5661,-53.2933 84.57422,-64.91211 16.34019,-5.75173 33.86947,-8.44375 51.02148,-7.91602 z m -0.44726,132.7832 c 6.63633,-0.48195 13.0152,0.16194 18.54687,1.96875 8.55314,2.79372 16.98303,8.90959 23.01367,16.81446 6.10241,7.99894 10.31613,18.35282 11.94336,29.2539 3.27284,21.92525 -3.85076,47.22487 -17.57617,69.15039 -16.31056,26.05515 -40.97399,47.37726 -69.11328,59.75 -20.74381,9.12098 -43.79166,13.59936 -66.58594,13.04297 -5.00365,-0.12213 -10.25758,0.37424 -15.44922,1.58789 0.002,-19.205 2.01213,-38.43172 6.19336,-57.11523 8.55668,-38.23483 25.52356,-74.28432 50.79492,-101.50977 11.70056,-12.60529 24.71017,-22.61891 38.14649,-28.15234 6.55631,-2.70006 13.44961,-4.30906 20.08594,-4.79102 z" id="path3188" /></svg:g></svg:svg>
